assets/icons/home-icon2.svg

<svg width="24" height="24" viewBox="0 0 24 24" fill="none" xmlns="http://www.w3.org/2000/svg">
<path fill-rule="evenodd" clip-rule="evenodd" d="M12 1.53191C6.21863 1.53191 1.53191 6.21863 1.53191 12C1.53191 17.7813 6.21863 22.4681 12 22.4681C17.7813 22.4681 22.4681 17.7813 22.4681 12C22.4681 6.21863 17.7813 1.53191 12 1.53191ZM0 12C0 5.37258 5.37258 0 12 0C18.6274 0 24 5.37258 24 12C24 18.6274 18.6274 24 12 24C5.37258 24 0 18.6274 0 12Z" fill="white"/>
<path d="M20.8115 11.9697L12.4544 2.21971C12.2034 1.92676 11.7966 1.92676 11.5454 2.21971L3.18834 11.9697C3.00442 12.1843 2.94945 12.5066 3.04897 12.7871C3.14855 13.0672 3.38299 13.25 3.6429 13.25H5.57145V19.25C5.57145 19.6641 5.85932 20 6.2143 20H10.2051H13.9285H17.7856C18.1409 20 18.4285 19.6641 18.4285 19.25V13.25H20.357C20.6169 13.25 20.8517 13.0672 20.9509 12.7871C21.0507 12.5066 20.9955 12.1843 20.8115 11.9697ZM10.7143 18.5V14.75C10.7143 13.9227 11.2909 13.25 12 13.25C12.7087 13.25 13.2857 13.9227 13.2857 14.75V18.5H10.7143ZM17.7856 11.75C17.4303 11.75 17.1428 12.0858 17.1428 12.5V18.5H14.5714V14.75C14.5714 13.0958 13.4181 11.75 12 11.75C10.5821 11.75 9.42855 13.0958 9.42855 14.75V18.5H6.85715V12.5C6.85715 12.0858 6.56928 11.75 6.2143 11.75H5.1948L12 3.81054L18.8051 11.75H17.7856Z" fill="white"/>
</svg>

<svg width="24" height="24" fill="none" xmlns="http://www.w3.org/2000/svg"><path fill-rule="evenodd" clip-rule="evenodd" d="M12 1.532C6.219 1.532 1.532 6.219 1.532 12S6.219 22.468 12 22.468 22.468 17.781 22.468 12 17.781 1.532 12 1.532zM0 12C0 5.373 5.373 0 12 0s12 5.373 12 12-5.373 12-12 12S0 18.627 0 12z" fill="#fff"/><path d="m20.811 11.97-8.357-9.75a.58.58 0 0 0-.909 0l-8.357 9.75a.843.843 0 0 0-.139.817c.1.28.334.463.594.463H5.57v6c0 .414.288.75.643.75H17.786c.355 0 .642-.336.642-.75v-6h1.929c.26 0 .495-.183.594-.463a.842.842 0 0 0-.14-.817zM10.714 18.5v-3.75c0-.827.577-1.5 1.286-1.5.709 0 1.286.673 1.286 1.5v3.75h-2.572zm7.072-6.75c-.356 0-.643.336-.643.75v6H14.57v-3.75c0-1.654-1.153-3-2.571-3-1.418 0-2.571 1.346-2.571 3v3.75H6.857v-6c0-.414-.288-.75-.643-.75h-1.02L12 3.81l6.805 7.94h-1.02z" fill="#fff"/></svg>
